!!!OTL: ZU MEINER ZEIT BESTAND NOCH RECHT UND BILLIGKEIT
!!!ARE: Europa, Mitteleuropa, Deutschland
!!!SCT: B0711
!!!YEM: Copyright 1995, estate of Helmut Schaffrath.
**kern
*ICvox
*Ivox
*M2/4
*k[f#]
*G:
{8g
=1
4dd
4ee
=2
4dd
8r}
{8gg
=3
8ff#
8ee
8dd
8cc
=4
8.b
16a
8g}
{8g
=5
4.f#
8g
=6
4.f#}
{8g
=7
16cc
16b
16cc
16dd
8cc
8a
=8
4b
8a}
{8g
=9
4.f#
8g
=10
4.f#}
{8g
=11
16cc
16b
16cc
16dd
8cc
8a
=12
4b
8a}
{8d
=13
4.b
16dd
16b
=14
4a}
{4dd
=15
4dd
4cc#
=16
4dd
8r}
{16dd
16ee
=17
4ffn
4a
=18
4.g#}
{8a
=19
16g#
16a
16b
16cc
8dd
8b
=20
4cc
8b}
{16cc
16dd
=21
4ee
4g
=22
4.fn}
{8g
=23
16f#
16g
16a
16b
8cc
8a
=24
4b
8a}
{16b
16cc
=25
8dd
8dd
8dd
16b
16cc
=26
8dd
8dd
8dd}
{8gg
=27
4b
4a
=28
4g
8r}
==
!!!AGN: Scherz - Lied
!!!ONB: ESAC (Essen Associative Code) Database: BOEHME
!!!AMT: simple duple
!!!AIN: vox
!!!EED: Helmut Schaffrath
!!!EEV: 1.0
*-
